; generated by PrusaSlicer 2.5.2+win64 on 2023-04-23 at 15:52:06 UTC


;
;

;
;
; 

; external perimeters extrusion width = 0.45mm
; perimeters extrusion width = 0.45mm
; infill extrusion width = 0.45mm
; solid infill extrusion width = 0.45mm
; top infill extrusion width = 0.40mm
; first layer extrusion width = 0.42mm

; external perimeters extrusion width = 0.45mm
; perimeters extrusion width = 0.45mm
; infill extrusion width = 0.45mm
; solid infill extrusion width = 0.45mm
; top infill extrusion width = 0.40mm
; first layer extrusion width = 0.42mm

; external perimeters extrusion width = 0.45mm
; perimeters extrusion width = 0.45mm
; infill extrusion width = 0.45mm
; solid infill extrusion width = 0.45mm
; top infill extrusion width = 0.40mm
; first layer extrusion width = 0.42mm

; external perimeters extrusion width = 0.45mm
; perimeters extrusion width = 0.45mm
; infill extrusion width = 0.45mm
; solid infill extrusion width = 0.45mm
; top infill extrusion width = 0.40mm
; first layer extrusion width = 0.42mm

M73 P0 R15
M201 X2500 Y2500 Z400 E5000 ; sets maximum accelerations, mm/sec^2
M203 X180 Y180 Z12 E80 ; sets maximum feedrates, mm / sec
M204 P1250 R1250 T2500 ; sets acceleration (P, T) and retract acceleration (R), mm/sec^2
M205 X8.00 Y8.00 Z2.00 E10.00 ; sets the jerk limits, mm/sec
M205 S0 T0 ; sets the minimum extruding and travel feed rate, mm/sec
M107
;TYPE:Custom
M862.3 P "MINI" ; printer model check
G90 ; use absolute coordinates
M83 ; extruder relative mode
M104 S170 ; set extruder temp for bed leveling
M140 S60 ; set bed temp
M109 R170 ; wait for bed leveling temp
M190 S60 ; wait for bed temp
M204 T1250 ; set travel acceleration
G28 ; home all without mesh bed level
G29 ; mesh bed leveling 
M204 T2500 ; restore travel acceleration
M104 S215 ; set extruder temp
G92 E0
G1 Y-2 X179 F2400
G1 Z3 F720
M109 S215 ; wait for extruder temp

; intro line
G1 X170 F1000
G1 Z0.2 F720
G1 X110 E8 F900
G1 X40 E10 F700
G92 E0

M221 S95 ; set flow
G21 ; set units to millimeters
G90 ; use absolute coordinates
M83 ; use relative distances for extrusion
M900 K0.2 ; Filament gcode LA 1.5
; ; Filament gcode LA 1.0
M107
;LAYER_CHANGE
;Z:0.2
;HEIGHT:0.2
;BEFORE_LAYER_CHANGE
G92 E0.0
;0.2


M73 P1 R15
G1 E-3.2 F4200
M73 P1 R14
G1 Z.2 F720
;AFTER_LAYER_CHANGE
;0.2
G1 Z.4
G1 X63.736 Y83.45 F9000
G1 Z.2 F720
G1 E3.2 F2400
M204 P800
;TYPE:Skirt/Brim
;WIDTH:0.42
G1 F1200
G1 X64.46 Y83.01 E.02656
G1 X65.295 Y82.639 E.02862
G1 X66.452 Y82.324 E.03762
G1 X67.577 Y82.214 E.03543
G1 X111.968 Y81.895 E1.39188
G1 X113.23 Y82.031 E.03981
M73 P2 R14
G1 X114.44 Y82.393 E.0396
G1 X115.576 Y82.975 E.04003
G1 X116.581 Y83.752 E.03981
G1 X117.427 Y84.699 E.03982
G1 X118.053 Y85.719 E.03754
G1 X118.515 Y86.902 E.03982
G1 X118.754 Y88.149 E.03981
G1 X118.762 Y89.4 E.03921
G1 X117.904 Y98.079 E.27344
G1 X117.646 Y99.321 E.0398
G1 X117.091 Y100.56 E.04256
G1 X116.222 Y101.699 E.04489
G1 X115.109 Y102.604 E.04499
G1 X113.932 Y103.182 E.04112
G1 X112.96 Y103.445 E.03157
G1 X111.939 Y103.546 E.03217
G1 X67.338 Y103.856 E1.39846
G1 X66.524 Y103.754 E.02572
G1 X65.614 Y103.502 E.02963
G1 X64.863 Y103.17 E.02572
G1 X64.099 Y102.694 E.02823
G1 X63.394 Y102.091 E.02909
G1 X62.844 Y101.46 E.02625
G1 X62.354 Y100.704 E.02823
G1 X61.967 Y99.842 E.02963
G1 X61.646 Y98.451 E.04474
G1 X60.791 Y89.807 E.27238
G1 X60.766 Y88.821 E.03092
G1 X60.895 Y87.774 E.03305
G1 X61.114 Y86.951 E.0267
G1 X61.462 Y86.1 E.02883
G1 X61.88 Y85.363 E.02657
G1 X62.384 Y84.682 E.02656
G1 X63.071 Y83.975 E.03092
G1 X63.689 Y83.487 E.02469
M204 P1000
; printing object Display Stabilizer w Tabs.stl id:3 copy 0
G1 E-2.24 F4200
;WIPE_START
G1 F7200
G1 X64.46 Y83.01 E-.50245
G1 X65.136 Y82.71 E-.40955
;WIPE_END
G1 E-.048 F4200
G1 Z.4 F720
G1 X64.709 Y91.51 F9000
G1 Z.2 F720
G1 E3.2 F2400
M204 P800
;TYPE:Perimeter
;WIDTH:0.419863
G1 F1200
G1 X64.684 Y91.429 E.00264
;WIDTH:0.403855
G1 X64.316 Y90.83 E.02112
;WIDTH:0.400284
G1 X64.099 Y90.301 E.01699
;WIDTH:0.398424
G1 X63.945 Y89.619 E.02066
;WIDTH:0.396323
G1 X63.916 Y89.054 E.01662
;WIDTH:0.397314
G1 X64.024 Y88.243 E.02412
G1 X64.246 Y87.596 E.02015
G1 X64.659 Y86.893 E.024
G1 X65.115 Y86.382 E.0202
;WIDTH:0.395659
G1 X65.681 Y85.948 E.02091
;WIDTH:0.395414
G1 X66.39 Y85.599 E.02316
G1 X67.078 Y85.421 E.02086
;WIDTH:0.395065
G1 X67.861 Y85.373 E.02295
;WIDTH:0.39783
G1 X68.541 Y85.469 E.02027
G1 X69.197 Y85.686 E.02039
;WIDTH:0.396193
G1 X69.809 Y86.021 E.02048
;WIDTH:0.395066
G1 X70.265 Y86.397 E.01731
;WIDTH:0.399329
G1 X70.643 Y86.803 E.01646
;WIDTH:0.400297
G1 X71.011 Y87.363 E.0199
G1 X71.208 Y87.79 E.01397
;WIDTH:0.395913
G1 X71.399 Y88.482 E.02107
;WIDTH:0.393584
G1 X71.459 Y89.16 E.01984
;WIDTH:0.393094
G1 X71.455 Y89.224 E.00189
;WIDTH:0.39243
G1 X71.392 Y89.812 E.01718
;WIDTH:0.399074
G1 X71.252 Y90.364 E.01686
;WIDTH:0.399863
G1 X71.035 Y90.871 E.01637
;WIDTH:0.402843
G1 X70.689 Y91.428 E.01963
;WIDTH:0.419999
G1 X70.597 Y91.721 E.00962
G1 X70.595 Y97.874 E.19291
G1 X70.535 Y98.381 E.01602
G1 X70.354 Y98.925 E.01796
G1 X70.093 Y99.406 E.01718
G1 X69.746 Y99.831 E.01718
G1 X69.312 Y100.204 E.01797
G1 X68.874 Y100.447 E.0157
G1 X68.332 Y100.621 E.01785
G1 X67.823 Y100.687 E.0161
G1 X67.25 Y100.668 E.01796
G1 X66.763 Y100.55 E.0157
G1 X66.194 Y100.276 E.0198
G1 X65.753 Y99.952 E.01718
G1 X65.358 Y99.536 E.01797
G1 X65.093 Y99.112 E.01568
G1 X64.872 Y98.489 E.02073
G1 X64.776 Y97.879 E.01936
G1 X64.774 Y91.721 E.19307
;WIDTH:0.419863
G1 X64.726 Y91.567 E.00506
M204 P1000
G1 E-2.24 F4200
;WIPE_START
G1 F7200
G1 X64.684 Y91.429 E-.0799
G1 X64.316 Y90.83 E-.38994
G1 X64.099 Y90.301 E-.31681
G1 X64.049 Y90.08 E-.12535
;WIPE_END
G1 E-.048 F4200
G1 Z.4 F720
G1 X67.683 Y92.57 F9000
G1 Z.2 F720
G1 E3.2 F2400
M204 P800
;WIDTH:0.419999
G1 F1200
G1 X67.06 Y92.518 E.01958
G1 X66.402 Y92.326 E.02147
G1 X65.796 Y92.008 E.02148
G1 X65.264 Y91.577 E.02147
G1 X64.841 Y91.039 E.02146
;WIDTH:0.38996
G1 X64.522 Y90.437 E.01966
;WIDTH:0.389415
G1 X64.328 Y89.783 E.01965
G1 X64.267 Y89.23 E.01602
G1 X64.318 Y88.561 E.01934
;WIDTH:0.388013
G1 X64.498 Y87.904 E.01955
G1 X64.808 Y87.297 E.01955
;WIDTH:0.388141
G1 X65.23 Y86.762 E.01955
;WIDTH:0.389566
G1 X65.75 Y86.322 E.01965
G1 X66.348 Y85.995 E.01964
;WIDTH:0.389722
G1 X66.998 Y85.791 E.01965
G1 X67.669 Y85.723 E.01944
;WIDTH:0.386639
G1 X68.23 Y85.765 E.01609
;WIDTH:0.38784
G1 X68.88 Y85.937 E.01927
;WIDTH:0.389121
G1 X69.492 Y86.237 E.01961
;WIDTH:0.399093
G1 X69.92 Y86.557 E.01584
;WIDTH:0.399329
G1 X70.358 Y87.016 E.01879
;WIDTH:0.400297
G1 X70.704 Y87.547 E.01884
G1 X70.869 Y87.89 E.01132
;WIDTH:0.395913
G1 X71.026 Y88.408 E.01589
;WIDTH:0.391262
G1 X71.106 Y89.085 E.01974
;WIDTH:0.392324
G1 X71.108 Y89.181 E.00278
G1 X71.05 Y89.754 E.01674
;WIDTH:0.399074
G1 X70.918 Y90.243 E.01499
;WIDTH:0.399863
G1 X70.726 Y90.693 E.01452
;WIDTH:0.402843
G1 X70.397 Y91.22 E.01858
;WIDTH:0.419999
G1 X70.075 Y91.608 E.01582
M73 P3 R14
G1 X69.64 Y91.965 E.01765
G1 X69.051 Y92.292 E.02112
G1 X68.41 Y92.498 E.02111
G1 X67.742 Y92.575 E.02107
M204 P1000
G1 X67.592 Y92.189 F9000
M204 P800
;TYPE:External perimeter
G1 F1200
G1 X67.098 Y92.143 E.01557
G1 X66.514 Y91.966 E.01913
G1 X65.976 Y91.677 E.01913
G1 X65.507 Y91.288 E.01912
G1 X65.125 Y90.813 E.01911
G1 X64.844 Y90.272 E.01911
G1 X64.676 Y89.686 E.01914
G1 X64.627 Y89.163 E.01647
G1 X64.676 Y88.592 E.01796
G1 X64.845 Y88.006 E.01912
G1 X65.126 Y87.465 E.01911
G1 X65.509 Y86.991 E.01912
G1 X65.979 Y86.602 E.01912
G1 X66.516 Y86.314 E.01911
G1 X67.1 Y86.138 E.01912
G1 X67.7 Y86.081 E.0189
G1 X68.205 Y86.125 E.01588
G1 X68.783 Y86.285 E.01879
G1 X69.327 Y86.559 E.01911
G1 X69.807 Y86.936 E.01912
G1 X70.202 Y87.4 E.01912
G1 X70.497 Y87.933 E.01911
G1 X70.68 Y88.515 E.01912
G1 X70.745 Y89.154 E.02014
G1 X70.69 Y89.719 E.01779
G1 X70.519 Y90.294 E.01881
G1 X70.24 Y90.825 E.01881
G1 X69.862 Y91.291 E.0188
G1 X69.401 Y91.674 E.0188
G1 X68.873 Y91.96 E.01881
G1 X68.301 Y92.137 E.0188
G1 X67.652 Y92.195 E.02042
M204 P1000
G1 X67.391 Y92.535 F9000
G1 E-2.24 F4200
;WIPE_START
G1 F7200
G1 X67.098 Y92.143 E-.30852
G1 X66.514 Y91.966 E-.33806
G1 X66.092 Y91.739 E-.26542
;WIPE_END
G1 E-.048 F4200
G1 Z.4 F720
G1 X64.352 Y91.594 F9000
G1 Z.2 F720
G1 E3.2 F2400
M204 P800
G1 F1200
G1 X63.993 Y91.01 E.02149
G1 X63.752 Y90.427 E.01979
G1 X63.583 Y89.685 E.02386
G1 X63.548 Y89.057 E.01972
G1 X63.661 Y88.177 E.02783
G1 X63.904 Y87.459 E.02374
G1 X64.349 Y86.692 E.02784
G1 X64.851 Y86.125 E.02374
G1 X65.448 Y85.659 E.02374
G1 X66.242 Y85.261 E.02784
G1 X66.971 Y85.064 E.02369
G1 X67.856 Y85.005 E.02779
G1 X68.608 Y85.105 E.02378
G1 X69.329 Y85.341 E.02379
G1 X69.997 Y85.706 E.02388
G1 X70.395 Y86.011 E.0157
G1 X70.922 Y86.56 E.02388
G1 X71.34 Y87.196 E.02388
G1 X71.559 Y87.691 E.01694
G1 X71.761 Y88.449 E.0246
G1 X71.822 Y89.187 E.02321
G1 X71.783 Y89.706 E.01632
G1 X71.59 Y90.507 E.02584
G1 X71.347 Y91.064 E.01906
G1 X70.975 Y91.721 E.02369
G1 X70.973 Y97.702 E.18753
G1 X70.932 Y98.235 E.01677
G1 X70.789 Y98.878 E.02066
G1 X70.561 Y99.386 E.01745
G1 X70.251 Y99.847 E.01739
G1 X69.694 Y100.385 E.02429
G1 X69.236 Y100.677 E.01702
G1 X68.617 Y100.944 E.02115
G1 X67.952 Y101.056 E.02115
G1 X67.409 Y101.059 E.01702
G1 X66.861 Y100.962 E.01745
G1 X66.239 Y100.743 E.02066
G1 X65.762 Y100.457 E.01745
G1 X65.34 Y100.094 E.01745
G1 X64.937 Y99.573 E.02066
G1 X64.671 Y99.085 E.01744
G1 X64.507 Y98.583 E.01654
G1 X64.399 Y97.898 E.02176
G1 X64.397 Y91.805 E.19104
G1 X64.373 Y91.649 E.00495
M204 P1000
G1 X64.603 Y91.282 F9000
G1 E-2.24 F4200
;WIPE_START
G1 F7200
G1 X63.993 Y91.01 E-.41203
G1 X63.752 Y90.427 E-.34983
G1 X63.691 Y90.163 E-.15014
;WIPE_END
G1 E-.048 F4200
G1 Z.4 F720
G1 X70.486 Y92.167 F9000
G1 Z.2 F720
G1 E3.2 F2400
M204 P800
;TYPE:Solid infill
;WIDTH:0.432773
G1 F1200
G1 X70.19 Y91.871 E.01354
G1 X69.891 Y92.123 E.01268
G1 X70.316 Y92.548 E.01946
G1 X70.315 Y93.099 E.01786
G1 X69.552 Y92.336 E.035
G1 X69.199 Y92.534 E.01313
G1 X70.315 Y93.65 E.05117
G1 X70.315 Y94.201 E.01786
G1 X68.788 Y92.674 E.07001
G1 X68.357 Y92.795 E.01449
G1 X70.314 Y94.752 E.08973
G1 X70.314 Y95.303 E.01786
G1 X67.85 Y92.838 E.11299
G1 X67.609 Y92.857 E.00783
G1 X67.277 Y92.817 E.01084
G1 X70.314 Y95.854 E.13923
G1 X70.313 Y96.405 E.01786
G1 X66.579 Y92.67 E.17121
G1 X66.17 Y92.535 E.01397
G1 X65.506 Y92.149 E.0249
G1 X70.313 Y96.956 E.22039
G1 X70.313 Y97.507 E.01786
G1 X65.057 Y92.251 E.24094
G1 X65.057 Y92.803 E.01788
G1 X70.291 Y98.037 E.23994
G1 X70.257 Y98.326 E.00945
G1 X70.208 Y98.504 E.00599
G1 X65.058 Y93.354 E.2361
G1 X65.058 Y93.906 E.01788
G1 X70.054 Y98.903 E.22907
G1 X69.982 Y99.065 E.00576
G1 X69.854 Y99.254 E.00739
G1 X65.058 Y94.457 E.21989
G1 X65.058 Y95.009 E.01788
G1 X69.611 Y99.562 E.20874
G1 X69.424 Y99.759 E.00879
G1 X69.33 Y99.832 E.00388
G1 X65.058 Y95.561 E.19582
G1 X65.058 Y96.112 E.01788
G1 X69 Y100.053 E.18069
G1 X68.755 Y100.189 E.00906
G1 X68.63 Y100.235 E.00432
G1 X65.059 Y96.664 E.16374
G1 X65.059 Y97.215 E.01788
G1 X68.204 Y100.36 E.14418
M73 P4 R14
G1 X68.091 Y100.385 E.00375
G1 X67.704 Y100.411 E.01257
G1 X65.059 Y97.767 E.12125
G1 X65.096 Y98.225 E.0149
G1 X65.141 Y98.4 E.00587
G1 X67.076 Y100.335 E.08868
G1 X66.85 Y100.28 E.00751
G1 X66.536 Y100.152 E.01102
G1 X66.15 Y99.92 E.0146
G1 X65.866 Y99.676 E.01212
G1 X65.152 Y98.963 E.03271
M204 P1000
; stop printing object Display Stabilizer w Tabs.stl id:3 copy 0
; printing object Display Stabilizer Plain.stl id:1 copy 0
G1 E-2.24 F4200
;WIPE_START
G1 F7200
G1 X65.866 Y99.676 E-.55926
G1 X66.15 Y99.92 E-.20725
G1 X66.375 Y100.055 E-.14549
;WIPE_END
G1 E-.048 F4200
G1 Z.4 F720
G1 X83.13 Y92.987 F9000
G1 Z.2 F720
G1 E3.2 F2400
M204 P800
;TYPE:Perimeter
;WIDTH:0.395717
G1 F1200
G1 X82.346 Y93.188 E.02376
;WIDTH:0.397824
G1 X81.643 Y93.222 E.02077
G1 X80.945 Y93.126 E.0208
;WIDTH:0.399119
G1 X80.176 Y92.851 E.02417
G1 X79.574 Y92.49 E.0208
;WIDTH:0.397179
G1 X79.045 Y92.02 E.02084
;WIDTH:0.395547
G1 X78.617 Y91.459 E.02068
;WIDTH:0.396374
G1 X78.262 Y90.726 E.02395
G1 X78.084 Y90.032 E.02104
;WIDTH:0.395132
G1 X78.042 Y89.338 E.02037
G1 X78.143 Y88.594 E.02199
;WIDTH:0.396298
G1 X78.392 Y87.867 E.02259
;WIDTH:0.398482
G1 X78.748 Y87.259 E.02081
G1 X79.211 Y86.724 E.02092
;WIDTH:0.397103
G1 X79.766 Y86.289 E.02076
;WIDTH:0.397816
G1 X80.495 Y85.923 E.02407
G1 X81.17 Y85.74 E.02065
;WIDTH:0.395542
G1 X81.984 Y85.689 E.02389
;WIDTH:0.397293
G1 X82.681 Y85.787 E.02075
G1 X83.353 Y86.014 E.02091
;WIDTH:0.394656
G1 X84.054 Y86.423 E.02373
;WIDTH:0.395977
G1 X84.577 Y86.892 E.02063
;WIDTH:0.397592
G1 X85.005 Y87.453 E.02079
;WIDTH:0.398249
G1 X85.361 Y88.187 E.02411
G1 X85.536 Y88.867 E.02076
;WIDTH:0.397343
G1 X85.58 Y89.574 E.02086
G1 X85.493 Y90.276 E.02085
;WIDTH:0.39572
G1 X85.274 Y90.946 E.02069
;WIDTH:0.396548
G1 X84.873 Y91.656 E.024
G1 X84.412 Y92.187 E.02066
;WIDTH:0.394908
G1 X83.858 Y92.623 E.02064
;WIDTH:0.395394
G1 X83.184 Y92.96 E.02208
M204 P1000
G1 X83.261 Y93.322 F9000
M204 P800
;TYPE:External perimeter
;WIDTH:0.419999
G1 F1200
G1 X82.366 Y93.552 E.02898
G1 X81.594 Y93.585 E.02422
G1 X80.825 Y93.47 E.02438
G1 X79.989 Y93.166 E.02789
G1 X79.331 Y92.764 E.02417
G1 X78.757 Y92.242 E.02432
G1 X78.29 Y91.62 E.0244
G1 X77.908 Y90.818 E.02784
G1 X77.722 Y90.057 E.02458
G1 X77.68 Y89.294 E.02394
G1 X77.799 Y88.479 E.02583
G1 X78.076 Y87.684 E.02639
G1 X78.47 Y87.02 E.02422
G1 X78.984 Y86.439 E.02432
G1 X79.6 Y85.963 E.0244
G1 X80.398 Y85.571 E.02788
G1 X81.146 Y85.376 E.02423
G1 X82.032 Y85.327 E.02784
G1 X82.797 Y85.44 E.02422
G1 X83.535 Y85.699 E.02453
G1 X84.295 Y86.151 E.02773
G1 X84.866 Y86.669 E.02417
G1 X85.333 Y87.292 E.0244
G1 X85.715 Y88.095 E.02788
G1 X85.9 Y88.843 E.02417
G1 X85.943 Y89.618 E.02433
G1 X85.84 Y90.386 E.02432
G1 X85.593 Y91.124 E.0244
G1 X85.149 Y91.895 E.02788
G1 X84.639 Y92.472 E.02416
G1 X84.023 Y92.948 E.0244
G1 X83.315 Y93.295 E.02473
M204 P1000
G1 X82.953 Y93.065 F9000
G1 E-2.24 F4200
;WIPE_START
G1 F7200
G1 X82.366 Y93.552 E-.54486
G1 X81.704 Y93.58 E-.36714
;WIPE_END
G1 E-.048 F4200
G1 Z.4 F720
G1 X79.826 Y86.679 F9000
G1 Z.2 F720
G1 E3.2 F2400
M204 P800
;TYPE:Perimeter
;WIDTH:0.386711
G1 F1200
G1 X80.389 Y86.349 E.01868
;WIDTH:0.388238
G1 X81.069 Y86.118 E.02063
G1 X81.777 Y86.038 E.02044
;WIDTH:0.386806
G1 X82.389 Y86.086 E.01756
;WIDTH:0.388761
G1 X83.073 Y86.278 E.02042
G1 X83.709 Y86.613 E.02068
;WIDTH:0.387187
G1 X84.184 Y86.994 E.01742
G1 X84.577 Y87.446 E.01714
;WIDTH:0.386478
G1 X84.93 Y88.061 E.02026
;WIDTH:0.387874
G1 X85.155 Y88.743 E.02062
G1 X85.228 Y89.347 E.01744
;WIDTH:0.388721
G1 X85.177 Y90.055 E.02041
G1 X85.018 Y90.642 E.01749
;WIDTH:0.387466
G1 X84.703 Y91.278 E.02033
;WIDTH:0.389117
G1 X84.264 Y91.838 E.02049
G1 X83.798 Y92.239 E.01769
;WIDTH:0.387961
G1 X83.179 Y92.588 E.02038
;WIDTH:0.386056
G1 X82.494 Y92.804 E.02051
;WIDTH:0.386514
G1 X81.89 Y92.873 E.01737
;WIDTH:0.388322
G1 X81.182 Y92.816 E.02039
G1 X80.597 Y92.65 E.01746
;WIDTH:0.387177
G1 X79.964 Y92.331 E.0203
;WIDTH:0.388848
G1 X79.403 Y91.882 E.02068
G1 X79.011 Y91.417 E.0175
;WIDTH:0.387571
G1 X79.002 Y91.405 E.00042
;WIDTH:0.387444
G1 X78.668 Y90.796 E.01991
;WIDTH:0.389429
G1 X78.455 Y90.109 E.02071
G1 X78.392 Y89.504 E.01752
;WIDTH:0.390386
G1 X78.454 Y88.804 E.02031
G1 X78.627 Y88.214 E.01777
;WIDTH:0.386217
G1 X78.892 Y87.676 E.01711
;WIDTH:0.387778
G1 X79.323 Y87.112 E.02035
G1 X79.774 Y86.71 E.01732
M204 P1000
G1 X80.128 Y86.914 F9000
M204 P800
;TYPE:External perimeter
;WIDTH:0.419999
G1 F1200
G1 X80.567 Y86.661 E.01587
G1 X81.179 Y86.463 E.02016
G1 X81.812 Y86.397 E.01996
G1 X82.355 Y86.445 E.0171
G1 X82.97 Y86.624 E.02008
G1 X83.536 Y86.929 E.02017
G1 X83.953 Y87.271 E.01691
G1 X84.302 Y87.678 E.0168
G1 X84.617 Y88.236 E.02007
G1 X84.81 Y88.85 E.02018
G1 X84.87 Y89.385 E.01689
G1 X84.817 Y90.023 E.02009
G1 X84.671 Y90.542 E.01689
G1 X84.382 Y91.113 E.02007
G1 X83.983 Y91.61 E.01997
G1 X83.567 Y91.961 E.01709
G1 X83.006 Y92.272 E.02008
G1 X82.391 Y92.459 E.02018
G1 X81.855 Y92.515 E.01689
G1 X81.217 Y92.456 E.02009
G1 X80.7 Y92.306 E.01689
G1 X80.131 Y92.012 E.02007
G1 X79.634 Y91.604 E.02017
G1 X79.287 Y91.185 E.01705
G1 X78.985 Y90.626 E.01992
